X:58
T:Jenny Lind
M:4/4
L:1/8
K:D
A2 | "D"F2 A2 "G"G2 B2 | "D"A2 f2 fe f2 | "A7"G2 e2 ed e2 | "D"F2 d2 d2 AG | \
"D"F2 A2 "G"G2 B2 | "D"A2 f2 fefa | "A7"g2 e2 ^cdec | "D"d2 f2 d2 :|][K:G]
[|: ef | "C"g2 f2 efge | "G"d2 B2 BABd | "D7"c2 A2 AGAc | "G"B2 G2 G2 ef | \
"C"g2 f2 efge | "G"d2 B2 BABd | "D7"c2 A2 AcBA | "G"G2 B2 G2 :|]

%%newpage

